X:1
T:Title
%%score { 1 | 2 }
L:1/8
M:4/4
K:Eb
V:1 treble nm="Grand Piano"
V:2 bass 
V:1
 z4 z2[Q:1/4=100] [EG][EA] | BBcB GEGE |[M:3/4] [DF]2 [DA][DF] G2 |[M:1/4] GA |[M:4/4] BBcB GEGE | %5
[M:7/8] F2 d c [DB]3 |[M:1/4] [AB]2 |[M:4/4] [Ge]2 [Ae]2 [Ge]2 GA |[M:3/4] BB cB G2 |[M:1/4] B2 | %10
[M:4/4] e2 [B,FB]2 [B,EG]2 [G,E][A,EF][Q:1/4=99][Q:1/4=97][Q:1/4=96] | %11
[M:3/4] [B,EG][CDA] [B,DG][A,DF] [G,E]2[Q:1/4=94][Q:1/4=93][Q:1/4=91][Q:1/4=90][Q:1/4=88][Q:1/4=87][Q:1/4=85][Q:1/4=84][Q:1/4=82][Q:1/4=81][Q:1/4=79][Q:1/4=78][Q:1/4=76] |] %12
V:2
 z4 z2 [E,B,][D,A,] | [E,G,E][E,G,E][E,A,E][E,G,E] [E,B,E][E,G,][E,B,E][E,G,] | %2
[M:3/4] [B,,B,]2 [B,,B,][B,,B,] [E,B,E]2 |[M:1/4] [E,B,E][E,A,E] | %4
[M:4/4] [E,G,E][E,G,E][E,A,E][E,G,E] [E,B,E][E,G,][E,B,E][E,G,] | %5
[M:7/8] [B,D]2 [F,B,F] [F,=A,E] [B,,B,]3 |[M:1/4] [D,B,]2 | %7
[M:4/4] [E,B,]2 [E,C]2 [E,B,]2 [E,B,E][E,A,E] |[M:3/4] [E,G,E][E,G,E] [E,A,E][E,G,E] [E,B,E]2 | %9
[M:1/4] [A,B,D]2 |[M:4/4] [G,B,E]2 D,2 E,2 E,C, |[M:3/4] B,,B,, B,,B,, E,2 |] %12

